lib/brands/icons/amp.svg

<svg xmlns="http://www.w3.org/2000/svg" fill="none" aria-hidden="true" viewBox="0 0 48 48"><g id="amp-Icon"><path id="Vector" fill="#1D5FE6" d="M23.9942 4C35.08 4.08728 43.9617 12.6676 44 24.2037C44.0349 34.7784 35.3969 44.2278 23.4914 43.9958C12.6319 43.7842 3.76198 34.9385 4.00487 23.3888C4.2192 13.1878 12.542 4.10543 23.9942 4ZM19.7819 27.0247C20.4929 27.0247 21.2042 27.0263 21.9153 27.0239C22.2553 27.0228 22.4683 27.0997 22.389 27.5259C22.2148 28.4633 22.072 29.4063 21.9188 30.3471C21.6301 32.1207 21.3425 33.8944 21.0558 35.6682C21.0283 35.8372 20.94 36.0179 21.1578 36.1345C21.5285 36.3329 22.5423 36.0804 22.7518 35.7304C25.4091 31.296 28.0651 26.8608 30.7198 22.4247C31.2713 21.502 30.9819 21.0032 29.9001 20.9952C28.6555 20.9863 27.4108 20.9863 26.1661 20.9952C25.7796 20.9973 25.517 20.9463 25.6101 20.4405C25.8877 18.936 26.1413 17.4271 26.3956 15.9183C26.5946 14.7371 26.7851 13.5546 26.9673 12.3705C26.9946 12.1938 27.1021 11.9752 26.8144 11.8704C26.2 11.6919 25.5398 11.921 25.1681 12.4418C23.1239 15.8461 21.0814 19.2515 19.0404 22.6578C18.4244 23.6854 17.7899 24.7023 17.203 25.7464C16.7631 26.5285 17.0519 27.0129 17.9151 27.0223C18.5373 27.0289 19.1597 27.0236 19.7821 27.0249L19.7819 27.0247Z"/></g></svg>

<svg xmlns="http://www.w3.org/2000/svg" fill="none" aria-hidden="true" viewBox="0 0 48 48"><path fill="#1D5FE6" d="M23.994 4C35.08 4.087 43.962 12.668 44 24.204c.035 10.574-8.603 20.024-20.509 19.792-10.86-.212-19.729-9.058-19.486-20.607C4.219 13.188 12.542 4.105 23.995 4Zm-4.212 23.025c.71 0 1.422.001 2.133-.001.34-.001.553.076.474.502-.174.937-.317 1.88-.47 2.821-.289 1.774-.576 3.547-.863 5.321-.028.17-.116.35.102.467.37.198 1.384-.055 1.594-.405 2.657-4.434 5.313-8.87 7.968-13.305.551-.923.262-1.422-.82-1.43-1.244-.009-2.49-.009-3.734 0-.386.002-.649-.049-.556-.555.278-1.504.531-3.013.786-4.522.199-1.18.39-2.363.571-3.547.028-.177.135-.396-.153-.5a1.506 1.506 0 0 0-1.646.57c-2.044 3.405-4.087 6.81-6.128 10.217-.616 1.027-1.25 2.044-1.837 3.088-.44.783-.151 1.267.712 1.276.622.007 1.245.002 1.867.003Z"/></svg>
